images/3233116.svg

<?xml version="1.0" encoding="UTF-8"?>
<svg xmlns="http://www.w3.org/2000/svg" xmlns:xlink="http://www.w3.org/1999/xlink" width="300pt" height="300pt" viewBox="0 0 300 300" version="1.1">
<defs>
<g>
<symbol overflow="visible" id="glyph0-0">
<path style="stroke:none;" d="M 0.546875 1.9375 L 0.546875 -7.75 L 6.046875 -7.75 L 6.046875 1.9375 Z M 1.171875 1.328125 L 5.4375 1.328125 L 5.4375 -7.140625 L 1.171875 -7.140625 Z M 1.171875 1.328125 "/>
</symbol>
<symbol overflow="visible" id="glyph0-1">
<path style="stroke:none;" d="M 4.328125 -7.28125 C 3.546875 -7.28125 2.921875 -6.984375 2.453125 -6.390625 C 1.992188 -5.804688 1.765625 -5.007812 1.765625 -4 C 1.765625 -2.988281 1.992188 -2.1875 2.453125 -1.59375 C 2.921875 -1.007812 3.546875 -0.71875 4.328125 -0.71875 C 5.117188 -0.71875 5.742188 -1.007812 6.203125 -1.59375 C 6.660156 -2.1875 6.890625 -2.988281 6.890625 -4 C 6.890625 -5.007812 6.660156 -5.804688 6.203125 -6.390625 C 5.742188 -6.984375 5.117188 -7.28125 4.328125 -7.28125 Z M 4.328125 -8.171875 C 5.453125 -8.171875 6.351562 -7.789062 7.03125 -7.03125 C 7.707031 -6.28125 8.046875 -5.269531 8.046875 -4 C 8.046875 -2.738281 7.707031 -1.726562 7.03125 -0.96875 C 6.351562 -0.21875 5.453125 0.15625 4.328125 0.15625 C 3.203125 0.15625 2.300781 -0.21875 1.625 -0.96875 C 0.957031 -1.71875 0.625 -2.726562 0.625 -4 C 0.625 -5.269531 0.957031 -6.28125 1.625 -7.03125 C 2.300781 -7.789062 3.203125 -8.171875 4.328125 -8.171875 Z M 4.328125 -8.171875 "/>
</symbol>
<symbol overflow="visible" id="glyph0-2">
<path style="stroke:none;" d="M 1.078125 -8.015625 L 2.546875 -8.015625 L 6.09375 -1.3125 L 6.09375 -8.015625 L 7.15625 -8.015625 L 7.15625 0 L 5.6875 0 L 2.125 -6.703125 L 2.125 0 L 1.078125 0 Z M 1.078125 -8.015625 "/>
</symbol>
</g>
</defs>
<g id="surface38569">
<rect x="0" y="0" width="300" height="300" style="fill:rgb(100%,100%,100%);fill-opacity:1;stroke:none;"/>
<path style="fill:none;stroke-width:1.2;stroke-linecap:butt;stroke-linejoin:miter;stroke:rgb(0%,0%,0%);stroke-opacity:1;stroke-miterlimit:10;" d="M 47.703125 80.722656 L 41.476562 92.648438 "/>
<path style="fill:none;stroke-width:1.2;stroke-linecap:butt;stroke-linejoin:miter;stroke:rgb(100%,0%,0%);stroke-opacity:1;stroke-miterlimit:10;" d="M 41.476562 92.648438 L 35.25 104.574219 "/>
<path style="fill:none;stroke-width:1.2;stroke-linecap:butt;stroke-linejoin:miter;stroke:rgb(100%,0%,0%);stroke-opacity:1;stroke-miterlimit:10;" d="M 35.25 104.574219 L 42.464844 115.929688 "/>
<path style="fill:none;stroke-width:1.2;stroke-linecap:butt;stroke-linejoin:miter;stroke:rgb(0%,0%,0%);stroke-opacity:1;stroke-miterlimit:10;" d="M 42.464844 115.929688 L 49.679688 127.289062 "/>
<path style=" stroke:none;fill-rule:nonzero;fill:rgb(100%,100%,100%);fill-opacity:1;" d="M 31.25 98.074219 L 40.25 98.074219 L 40.25 111.074219 L 31.25 111.074219 Z M 31.25 98.074219 "/>
<g style="fill:rgb(100%,0%,0%);fill-opacity:1;">
  <use xlink:href="#glyph0-1" x="31.25" y="107.975586"/>
</g>
<path style="fill:none;stroke-width:1.2;stroke-linecap:butt;stroke-linejoin:miter;stroke:rgb(0%,0%,0%);stroke-opacity:1;stroke-miterlimit:10;" d="M 49.679688 127.289062 L 76.5625 126.148438 "/>
<path style="fill:none;stroke-width:1.2;stroke-linecap:butt;stroke-linejoin:miter;stroke:rgb(0%,0%,0%);stroke-opacity:1;stroke-miterlimit:10;" d="M 52.636719 133.5 L 74.144531 132.585938 "/>
<path style="fill:none;stroke-width:1.2;stroke-linecap:butt;stroke-linejoin:miter;stroke:rgb(0%,0%,0%);stroke-opacity:1;stroke-miterlimit:10;" d="M 37.222656 151.140625 L 49.679688 127.289062 "/>
<path style="fill:none;stroke-width:1.2;stroke-linecap:butt;stroke-linejoin:miter;stroke:rgb(0%,0%,0%);stroke-opacity:1;stroke-miterlimit:10;" d="M 76.5625 126.148438 L 90.992188 148.859375 "/>
<path style="fill:none;stroke-width:1.2;stroke-linecap:butt;stroke-linejoin:miter;stroke:rgb(0%,0%,0%);stroke-opacity:1;stroke-miterlimit:10;" d="M 90.992188 148.859375 L 78.535156 172.710938 "/>
<path style="fill:none;stroke-width:1.2;stroke-linecap:butt;stroke-linejoin:miter;stroke:rgb(0%,0%,0%);stroke-opacity:1;stroke-miterlimit:10;" d="M 84.132812 148.316406 L 74.171875 167.398438 "/>
<path style="fill:none;stroke-width:1.2;stroke-linecap:butt;stroke-linejoin:miter;stroke:rgb(0%,0%,0%);stroke-opacity:1;stroke-miterlimit:10;" d="M 78.535156 172.710938 L 51.652344 173.851562 "/>
<path style="fill:none;stroke-width:1.2;stroke-linecap:butt;stroke-linejoin:miter;stroke:rgb(0%,0%,0%);stroke-opacity:1;stroke-miterlimit:10;" d="M 78.535156 172.710938 L 92.964844 195.425781 "/>
<path style="fill:none;stroke-width:1.2;stroke-linecap:butt;stroke-linejoin:miter;stroke:rgb(0%,0%,0%);stroke-opacity:1;stroke-miterlimit:10;" d="M 51.652344 173.851562 L 37.222656 151.140625 "/>
<path style="fill:none;stroke-width:1.2;stroke-linecap:butt;stroke-linejoin:miter;stroke:rgb(0%,0%,0%);stroke-opacity:1;stroke-miterlimit:10;" d="M 55.554688 168.1875 L 44.011719 150.015625 "/>
<path style="fill:none;stroke-width:1.2;stroke-linecap:butt;stroke-linejoin:miter;stroke:rgb(0%,0%,0%);stroke-opacity:1;stroke-miterlimit:10;" d="M 90.160156 193.960938 L 83.933594 205.886719 "/>
<path style="fill:none;stroke-width:1.2;stroke-linecap:butt;stroke-linejoin:miter;stroke:rgb(100%,0%,0%);stroke-opacity:1;stroke-miterlimit:10;" d="M 83.933594 205.886719 L 77.703125 217.8125 "/>
<path style="fill:none;stroke-width:1.2;stroke-linecap:butt;stroke-linejoin:miter;stroke:rgb(0%,0%,0%);stroke-opacity:1;stroke-miterlimit:10;" d="M 95.773438 196.890625 L 89.542969 208.816406 "/>
<path style="fill:none;stroke-width:1.2;stroke-linecap:butt;stroke-linejoin:miter;stroke:rgb(100%,0%,0%);stroke-opacity:1;stroke-miterlimit:10;" d="M 89.542969 208.816406 L 83.316406 220.742188 "/>
<path style="fill:none;stroke-width:1.2;stroke-linecap:butt;stroke-linejoin:miter;stroke:rgb(0%,0%,0%);stroke-opacity:1;stroke-miterlimit:10;" d="M 92.964844 195.425781 L 106.40625 194.855469 "/>
<path style="fill:none;stroke-width:1.2;stroke-linecap:butt;stroke-linejoin:miter;stroke:rgb(0%,0%,100%);stroke-opacity:1;stroke-miterlimit:10;" d="M 106.40625 194.855469 L 119.851562 194.285156 "/>
<path style=" stroke:none;fill-rule:nonzero;fill:rgb(100%,100%,100%);fill-opacity:1;" d="M 71.511719 212.777344 L 80.511719 212.777344 L 80.511719 225.777344 L 71.511719 225.777344 Z M 71.511719 212.777344 "/>
<g style="fill:rgb(100%,0%,0%);fill-opacity:1;">
  <use xlink:href="#glyph0-1" x="71.511719" y="222.678711"/>
</g>
<path style="fill:none;stroke-width:1.2;stroke-linecap:butt;stroke-linejoin:miter;stroke:rgb(0%,0%,100%);stroke-opacity:1;stroke-miterlimit:10;" d="M 119.851562 194.285156 L 127.0625 205.640625 "/>
<path style="fill:none;stroke-width:1.2;stroke-linecap:butt;stroke-linejoin:miter;stroke:rgb(0%,0%,0%);stroke-opacity:1;stroke-miterlimit:10;" d="M 127.0625 205.640625 L 134.277344 216.996094 "/>
<path style="fill:none;stroke-width:1.2;stroke-linecap:butt;stroke-linejoin:miter;stroke:rgb(0%,0%,0%);stroke-opacity:1;stroke-miterlimit:10;" d="M 132.304688 170.433594 L 126.078125 182.359375 "/>
<path style="fill:none;stroke-width:1.2;stroke-linecap:butt;stroke-linejoin:miter;stroke:rgb(0%,0%,100%);stroke-opacity:1;stroke-miterlimit:10;" d="M 126.078125 182.359375 L 119.851562 194.285156 "/>
<path style=" stroke:none;fill-rule:nonzero;fill:rgb(100%,100%,100%);fill-opacity:1;" d="M 115.851562 187.785156 L 123.851562 187.785156 L 123.851562 200.785156 L 115.851562 200.785156 Z M 115.851562 187.785156 "/>
<g style="fill:rgb(0%,0%,100%);fill-opacity:1;">
  <use xlink:href="#glyph0-2" x="115.851562" y="197.686523"/>
</g>
<path style="fill:none;stroke-width:1.2;stroke-linecap:butt;stroke-linejoin:miter;stroke:rgb(0%,0%,0%);stroke-opacity:1;stroke-miterlimit:10;" d="M 134.277344 216.996094 L 161.164062 215.855469 "/>
<path style="fill:none;stroke-width:1.2;stroke-linecap:butt;stroke-linejoin:miter;stroke:rgb(0%,0%,0%);stroke-opacity:1;stroke-miterlimit:10;" d="M 161.164062 215.855469 L 173.617188 192.003906 "/>
<path style="fill:none;stroke-width:1.2;stroke-linecap:butt;stroke-linejoin:miter;stroke:rgb(0%,0%,0%);stroke-opacity:1;stroke-miterlimit:10;" d="M 173.617188 192.003906 L 188.046875 214.71875 "/>
<path style="fill:none;stroke-width:1.2;stroke-linecap:butt;stroke-linejoin:miter;stroke:rgb(0%,0%,0%);stroke-opacity:1;stroke-miterlimit:10;" d="M 173.617188 192.003906 L 159.1875 169.292969 "/>
<path style="fill:none;stroke-width:1.2;stroke-linecap:butt;stroke-linejoin:miter;stroke:rgb(0%,0%,0%);stroke-opacity:1;stroke-miterlimit:10;" d="M 186.074219 168.152344 L 173.617188 192.003906 "/>
<path style="fill:none;stroke-width:1.2;stroke-linecap:butt;stroke-linejoin:miter;stroke:rgb(0%,0%,0%);stroke-opacity:1;stroke-miterlimit:10;" d="M 188.046875 214.71875 L 214.929688 213.578125 "/>
<path style="fill:none;stroke-width:1.2;stroke-linecap:butt;stroke-linejoin:miter;stroke:rgb(0%,0%,0%);stroke-opacity:1;stroke-miterlimit:10;" d="M 214.929688 213.578125 L 227.386719 189.726562 "/>
<path style="fill:none;stroke-width:1.2;stroke-linecap:butt;stroke-linejoin:miter;stroke:rgb(0%,0%,0%);stroke-opacity:1;stroke-miterlimit:10;" d="M 227.386719 189.726562 L 220.171875 178.371094 "/>
<path style="fill:none;stroke-width:1.2;stroke-linecap:butt;stroke-linejoin:miter;stroke:rgb(0%,0%,100%);stroke-opacity:1;stroke-miterlimit:10;" d="M 220.171875 178.371094 L 212.957031 167.015625 "/>
<path style="fill:none;stroke-width:1.2;stroke-linecap:butt;stroke-linejoin:miter;stroke:rgb(0%,0%,100%);stroke-opacity:1;stroke-miterlimit:10;" d="M 212.957031 167.015625 L 199.515625 167.582031 "/>
<path style="fill:none;stroke-width:1.2;stroke-linecap:butt;stroke-linejoin:miter;stroke:rgb(0%,0%,0%);stroke-opacity:1;stroke-miterlimit:10;" d="M 199.515625 167.582031 L 186.074219 168.152344 "/>
<path style="fill:none;stroke-width:1.2;stroke-linecap:butt;stroke-linejoin:miter;stroke:rgb(0%,0%,100%);stroke-opacity:1;stroke-miterlimit:10;" d="M 212.957031 167.015625 L 219.183594 155.085938 "/>
<path style="fill:none;stroke-width:1.2;stroke-linecap:butt;stroke-linejoin:miter;stroke:rgb(0%,0%,0%);stroke-opacity:1;stroke-miterlimit:10;" d="M 219.183594 155.085938 L 225.410156 143.160156 "/>
<path style=" stroke:none;fill-rule:nonzero;fill:rgb(100%,100%,100%);fill-opacity:1;" d="M 208.957031 160.515625 L 216.957031 160.515625 L 216.957031 173.515625 L 208.957031 173.515625 Z M 208.957031 160.515625 "/>
<g style="fill:rgb(0%,0%,100%);fill-opacity:1;">
  <use xlink:href="#glyph0-2" x="208.957031" y="170.416992"/>
</g>
<path style="fill:none;stroke-width:1.2;stroke-linecap:butt;stroke-linejoin:miter;stroke:rgb(0%,0%,0%);stroke-opacity:1;stroke-miterlimit:10;" d="M 225.410156 143.160156 L 238.851562 142.59375 "/>
<path style="fill:none;stroke-width:1.2;stroke-linecap:butt;stroke-linejoin:miter;stroke:rgb(0%,0%,100%);stroke-opacity:1;stroke-miterlimit:10;" d="M 238.851562 142.59375 L 252.296875 142.023438 "/>
<path style="fill:none;stroke-width:1.2;stroke-linecap:butt;stroke-linejoin:miter;stroke:rgb(0%,0%,0%);stroke-opacity:1;stroke-miterlimit:10;" d="M 227.832031 136.722656 L 238.585938 136.265625 "/>
<path style="fill:none;stroke-width:1.2;stroke-linecap:butt;stroke-linejoin:miter;stroke:rgb(0%,0%,100%);stroke-opacity:1;stroke-miterlimit:10;" d="M 238.585938 136.265625 L 249.339844 135.808594 "/>
<path style="fill:none;stroke-width:1.2;stroke-linecap:butt;stroke-linejoin:miter;stroke:rgb(0%,0%,100%);stroke-opacity:1;stroke-miterlimit:10;" d="M 210.980469 120.449219 L 218.195312 131.804688 "/>
<path style="fill:none;stroke-width:1.2;stroke-linecap:butt;stroke-linejoin:miter;stroke:rgb(0%,0%,0%);stroke-opacity:1;stroke-miterlimit:10;" d="M 218.195312 131.804688 L 225.410156 143.160156 "/>
<path style="fill:none;stroke-width:1.2;stroke-linecap:butt;stroke-linejoin:miter;stroke:rgb(0%,0%,100%);stroke-opacity:1;stroke-miterlimit:10;" d="M 252.296875 142.023438 L 258.523438 130.097656 "/>
<path style="fill:none;stroke-width:1.2;stroke-linecap:butt;stroke-linejoin:miter;stroke:rgb(0%,0%,0%);stroke-opacity:1;stroke-miterlimit:10;" d="M 258.523438 130.097656 L 264.75 118.171875 "/>
<path style=" stroke:none;fill-rule:nonzero;fill:rgb(100%,100%,100%);fill-opacity:1;" d="M 248.296875 135.523438 L 256.296875 135.523438 L 256.296875 148.523438 L 248.296875 148.523438 Z M 248.296875 135.523438 "/>
<g style="fill:rgb(0%,0%,100%);fill-opacity:1;">
  <use xlink:href="#glyph0-2" x="248.296875" y="145.424805"/>
</g>
<path style="fill:none;stroke-width:1.2;stroke-linecap:butt;stroke-linejoin:miter;stroke:rgb(0%,0%,0%);stroke-opacity:1;stroke-miterlimit:10;" d="M 264.75 118.171875 L 250.320312 95.457031 "/>
<path style="fill:none;stroke-width:1.2;stroke-linecap:butt;stroke-linejoin:miter;stroke:rgb(0%,0%,0%);stroke-opacity:1;stroke-miterlimit:10;" d="M 257.964844 119.292969 L 246.417969 101.125 "/>
<path style="fill:none;stroke-width:1.2;stroke-linecap:butt;stroke-linejoin:miter;stroke:rgb(0%,0%,0%);stroke-opacity:1;stroke-miterlimit:10;" d="M 250.320312 95.457031 L 223.4375 96.597656 "/>
<path style="fill:none;stroke-width:1.2;stroke-linecap:butt;stroke-linejoin:miter;stroke:rgb(0%,0%,0%);stroke-opacity:1;stroke-miterlimit:10;" d="M 223.4375 96.597656 L 217.210938 108.523438 "/>
<path style="fill:none;stroke-width:1.2;stroke-linecap:butt;stroke-linejoin:miter;stroke:rgb(0%,0%,100%);stroke-opacity:1;stroke-miterlimit:10;" d="M 217.210938 108.523438 L 210.980469 120.449219 "/>
<path style="fill:none;stroke-width:1.2;stroke-linecap:butt;stroke-linejoin:miter;stroke:rgb(0%,0%,0%);stroke-opacity:1;stroke-miterlimit:10;" d="M 227.804688 101.914062 L 222.820312 111.453125 "/>
<path style="fill:none;stroke-width:1.2;stroke-linecap:butt;stroke-linejoin:miter;stroke:rgb(0%,0%,100%);stroke-opacity:1;stroke-miterlimit:10;" d="M 222.820312 111.453125 L 217.839844 120.996094 "/>
<path style=" stroke:none;fill-rule:nonzero;fill:rgb(100%,100%,100%);fill-opacity:1;" d="M 206.980469 113.949219 L 214.980469 113.949219 L 214.980469 126.949219 L 206.980469 126.949219 Z M 206.980469 113.949219 "/>
<g style="fill:rgb(0%,0%,100%);fill-opacity:1;">
  <use xlink:href="#glyph0-2" x="206.980469" y="123.850586"/>
</g>
<path style="fill:none;stroke-width:1.2;stroke-linecap:butt;stroke-linejoin:miter;stroke:rgb(0%,0%,0%);stroke-opacity:1;stroke-miterlimit:10;" d="M 159.1875 169.292969 L 132.304688 170.433594 "/>
</g>
</svg>

<svg xmlns="http://www.w3.org/2000/svg" xmlns:xlink="http://www.w3.org/1999/xlink" width="300pt" height="300pt" viewBox="0 0 300 300"><defs><symbol overflow="visible"><path d="M.547 1.938V-7.75h5.5v9.688zm.625-.61h4.266v-8.47H1.171zm0 0"/></symbol><symbol overflow="visible" id="a"><path d="M4.328-7.28c-.78 0-1.406.296-1.875.89-.46.585-.687 1.382-.687 2.39 0 1.012.226 1.813.687 2.406.47.586 1.094.875 1.875.875.79 0 1.414-.288 1.875-.874.457-.593.688-1.394.688-2.406 0-1.008-.23-1.805-.687-2.39-.46-.594-1.086-.89-1.875-.89zm0-.892c1.125 0 2.024.383 2.703 1.14C7.708-6.28 8.048-5.27 8.048-4c0 1.262-.34 2.273-1.016 3.03C6.353-.22 5.454.157 4.33.157S2.3-.22 1.625-.97c-.668-.75-1-1.757-1-3.03 0-1.27.332-2.28 1-3.03.676-.76 1.578-1.142 2.703-1.142zm0 0"/></symbol><symbol overflow="visible" id="b"><path d="M1.078-8.016h1.47l3.546 6.704v-6.704h1.062V0H5.688L2.124-6.703V0H1.078zm0 0"/></symbol></defs><g><path fill="#fff" d="M0 0h300v300H0z"/><path d="M47.703 80.723l-6.226 11.925" stroke-width="1.2" stroke="#000" stroke-miterlimit="10" fill="none"/><path d="M41.477 92.648l-6.227 11.926M35.25 104.574l7.215 11.356" stroke-width="1.2" stroke="#f00" stroke-miterlimit="10" fill="none"/><path d="M42.465 115.93l7.215 11.36" stroke-width="1.2" stroke="#000" stroke-miterlimit="10" fill="none"/><path d="M31.25 98.074h9v13h-9zm0 0" fill="#fff"/><use xlink:href="#a" x="31.25" y="107.976" fill="#f00"/><path d="M49.68 127.29l26.883-1.142M52.637 133.5l21.508-.914M37.223 151.14l12.457-23.85M76.563 126.148l14.43 22.71M90.992 148.86l-12.457 23.85M84.133 148.316l-9.96 19.082M78.535 172.71l-26.883 1.142M78.535 172.71l14.43 22.716M51.652 173.852l-14.43-22.71M55.555 168.188l-11.543-18.172M90.16 193.96l-6.226 11.927" stroke-width="1.2" stroke="#000" stroke-miterlimit="10" fill="none"/><path d="M83.934 205.887l-6.23 11.925" stroke-width="1.2" stroke="#f00" stroke-miterlimit="10" fill="none"/><path d="M95.773 196.89l-6.23 11.926" stroke-width="1.2" stroke="#000" stroke-miterlimit="10" fill="none"/><path d="M89.543 208.816l-6.227 11.926" stroke-width="1.2" stroke="#f00" stroke-miterlimit="10" fill="none"/><path d="M92.965 195.426l13.44-.57" stroke-width="1.2" stroke="#000" stroke-miterlimit="10" fill="none"/><path d="M106.406 194.855l13.446-.57" stroke-width="1.2" stroke="#00f" stroke-miterlimit="10" fill="none"/><path d="M71.512 212.777h9v13h-9zm0 0" fill="#fff"/><use xlink:href="#a" x="71.512" y="222.679" fill="#f00"/><path d="M119.852 194.285l7.21 11.356" stroke-width="1.2" stroke="#00f" stroke-miterlimit="10" fill="none"/><path d="M127.063 205.64l7.214 11.356M132.305 170.434l-6.227 11.925" stroke-width="1.2" stroke="#000" stroke-miterlimit="10" fill="none"/><path d="M126.078 182.36l-6.226 11.925" stroke-width="1.2" stroke="#00f" stroke-miterlimit="10" fill="none"/><path d="M115.852 187.785h8v13h-8zm0 0" fill="#fff"/><use xlink:href="#b" x="115.852" y="197.687" fill="#00f"/><path d="M134.277 216.996l26.887-1.14M161.164 215.855l12.453-23.85M173.617 192.004l14.43 22.715M173.617 192.004l-14.43-22.71M186.074 168.152l-12.457 23.852M188.047 214.72l26.883-1.142M214.93 213.578l12.457-23.85M227.387 189.727l-7.215-11.356" stroke-width="1.2" stroke="#000" stroke-miterlimit="10" fill="none"/><path d="M220.172 178.37l-7.215-11.354M212.957 167.016l-13.44.566" stroke-width="1.2" stroke="#00f" stroke-miterlimit="10" fill="none"/><path d="M199.516 167.582l-13.442.57" stroke-width="1.2" stroke="#000" stroke-miterlimit="10" fill="none"/><path d="M212.957 167.016l6.227-11.93" stroke-width="1.2" stroke="#00f" stroke-miterlimit="10" fill="none"/><path d="M219.184 155.086l6.226-11.926" stroke-width="1.2" stroke="#000" stroke-miterlimit="10" fill="none"/><path d="M208.957 160.516h8v13h-8zm0 0" fill="#fff"/><use xlink:href="#b" x="208.957" y="170.417" fill="#00f"/><path d="M225.41 143.16l13.442-.566" stroke-width="1.2" stroke="#000" stroke-miterlimit="10" fill="none"/><path d="M238.852 142.594l13.445-.57" stroke-width="1.2" stroke="#00f" stroke-miterlimit="10" fill="none"/><path d="M227.832 136.723l10.754-.457" stroke-width="1.2" stroke="#000" stroke-miterlimit="10" fill="none"/><path d="M238.586 136.266l10.754-.457M210.98 120.45l7.215 11.355" stroke-width="1.2" stroke="#00f" stroke-miterlimit="10" fill="none"/><path d="M218.195 131.805l7.215 11.355" stroke-width="1.2" stroke="#000" stroke-miterlimit="10" fill="none"/><path d="M252.297 142.023l6.226-11.925" stroke-width="1.2" stroke="#00f" stroke-miterlimit="10" fill="none"/><path d="M258.523 130.098l6.227-11.926" stroke-width="1.2" stroke="#000" stroke-miterlimit="10" fill="none"/><path d="M248.297 135.523h8v13h-8zm0 0" fill="#fff"/><use xlink:href="#b" x="248.297" y="145.425" fill="#00f"/><path d="M264.75 118.172l-14.43-22.715M257.965 119.293l-11.547-18.168M250.32 95.457l-26.882 1.14M223.438 96.598l-6.227 11.925" stroke-width="1.2" stroke="#000" stroke-miterlimit="10" fill="none"/><path d="M217.21 108.523l-6.23 11.926" stroke-width="1.2" stroke="#00f" stroke-miterlimit="10" fill="none"/><path d="M227.805 101.914l-4.985 9.54" stroke-width="1.2" stroke="#000" stroke-miterlimit="10" fill="none"/><path d="M222.82 111.453l-4.98 9.543" stroke-width="1.2" stroke="#00f" stroke-miterlimit="10" fill="none"/><path d="M206.98 113.95h8v13h-8zm0 0" fill="#fff"/><use xlink:href="#b" x="206.98" y="123.851" fill="#00f"/><path d="M159.188 169.293l-26.883 1.14" stroke-width="1.2" stroke="#000" stroke-miterlimit="10" fill="none"/></g></svg>
